app/component-library/components/Icons/Icon/assets/security-user.svg

<svg width="24" height="24" viewBox="0 0 24 24" fill="none" xmlns="http://www.w3.org/2000/svg">
<path d="M18.7809 4.10982L13.7909 2.23982C12.9609 1.92982 11.6009 1.92982 10.7709 2.23982L5.78092 4.10982C4.63092 4.53982 3.69092 5.89982 3.69092 7.11982V14.5498C3.69092 15.7298 4.47092 17.2798 5.42092 17.9898L9.72092 21.1998C11.1309 22.2598 13.4509 22.2598 14.8609 21.1998L19.1609 17.9898C20.1109 17.2798 20.8909 15.7298 20.8909 14.5498V7.11982C20.8709 5.89982 19.9309 4.53982 18.7809 4.10982ZM12.2109 7.02982C13.3909 7.02982 14.3509 7.98982 14.3509 9.16982C14.3509 10.3298 13.4409 11.2598 12.2909 11.2998H12.2709H12.2509C12.2309 11.2998 12.2109 11.2998 12.1909 11.2998C10.9909 11.2598 10.0909 10.3298 10.0909 9.16982C10.0809 7.98982 11.0409 7.02982 12.2109 7.02982ZM14.4709 16.3598C13.8609 16.7598 13.0709 16.9698 12.2809 16.9698C11.4909 16.9698 10.6909 16.7698 10.0909 16.3598C9.52092 15.9798 9.21092 15.4598 9.20092 14.8898C9.20092 14.3298 9.52092 13.7898 10.0909 13.4098C11.3009 12.6098 13.2709 12.6098 14.4809 13.4098C15.0509 13.7898 15.3709 14.3098 15.3709 14.8798C15.3609 15.4398 15.0409 15.9798 14.4709 16.3598Z" fill="currentColor"/>
</svg>

<svg xmlns="http://www.w3.org/2000/svg" width="24" height="24" viewBox="0 0 24 24" fill="none"><path fill="currentColor" d="m18.78 4.11-4.99-1.87c-.83-.31-2.19-.31-3.02 0L5.78 4.11c-1.15.43-2.09 1.79-2.09 3.01v7.43c0 1.18.78 2.73 1.73 3.44l4.3 3.21c1.41 1.06 3.73 1.06 5.14 0l4.3-3.21c.95-.71 1.73-2.26 1.73-3.44V7.12c-.02-1.22-.96-2.58-2.11-3.01Zm-6.57 2.92c1.18 0 2.14.96 2.14 2.14 0 1.16-.91 2.09-2.06 2.13h-.1c-1.2-.04-2.1-.97-2.1-2.13-.01-1.18.95-2.14 2.12-2.14Zm2.26 9.33c-.61.4-1.4.61-2.19.61s-1.59-.2-2.19-.61c-.57-.38-.88-.9-.89-1.47 0-.56.32-1.1.89-1.48 1.21-.8 3.18-.8 4.39 0 .57.38.89.9.89 1.47-.01.56-.33 1.1-.9 1.48Z"/></svg>
